X: 143
T: the Drums call
B: C. & S. Thompson, "The Compleat Tutor for the Fife" c.1760 p.14 #3
S: http://imslp.org/wiki/The_Compleat_Tutor_for_the_Fife_(Anonymous)
Z: 2014 John Chambers <jc:trillian.mit.edu>
M: 2/4
L: 1/8
K: G
% - - - - - - - - - - - - - - - - - - - - - - - - -
[|\
G/A/B/c/ dd | BG e2 | ABcc | Ag f2 |\
defg | a2 z2 | gdgd | ecdB | G4 |]
% - - - - - - - - - - - - - - - - - - - - - - - - -
